images/indikatorenset/4923.svg

<?xml version="1.0" standalone="no"?>
<!DOCTYPE svg PUBLIC "-//W3C//DTD SVG 1.1//EN" "http://www.w3.org/Graphics/SVG/1.1/DTD/svg11.dtd">
<svg xmlns:xlink="http://www.w3.org/1999/xlink" version="1.1" class="highcharts-root" style="font-family:arial;font-size:12px;" xmlns="http://www.w3.org/2000/svg" viewBox="0 0 485 415">
  <desc>
    Created with Highstock 5.0.14
  </desc>
  <defs>
    <clipPath id="highcharts-q5yv2i5-6">
      <rect x="0" y="0" width="432" height="299" fill="none"/>
    </clipPath>
    <clipPath id="highcharts-q5yv2i5-7">
      <rect x="0" y="0" width="432" height="299" fill="none"/>
    </clipPath>
  </defs>
  <rect fill="#fbfbfb" class="highcharts-background" x="0" y="0" width="485" height="415" rx="0" ry="0"/>
  <rect fill="none" class="highcharts-plot-background" x="43" y="41" width="432" height="299"/>
  <g class="highcharts-pane-group"/>
  <g class="highcharts-grid highcharts-xaxis-grid ">
    <path fill="none" class="highcharts-grid-line" d="M 69.5 41 L 69.5 340" opacity="1"/>
    <path fill="none" class="highcharts-grid-line" d="M 96.5 41 L 96.5 340" opacity="1"/>
    <path fill="none" class="highcharts-grid-line" d="M 123.5 41 L 123.5 340" opacity="1"/>
    <path fill="none" class="highcharts-grid-line" d="M 150.5 41 L 150.5 340" opacity="1"/>
    <path fill="none" class="highcharts-grid-line" d="M 177.5 41 L 177.5 340" opacity="1"/>
    <path fill="none" class="highcharts-grid-line" d="M 204.5 41 L 204.5 340" opacity="1"/>
    <path fill="none" class="highcharts-grid-line" d="M 231.5 41 L 231.5 340" opacity="1"/>
    <path fill="none" class="highcharts-grid-line" d="M 258.5 41 L 258.5 340" opacity="1"/>
    <path fill="none" class="highcharts-grid-line" d="M 285.5 41 L 285.5 340" opacity="1"/>
    <path fill="none" class="highcharts-grid-line" d="M 312.5 41 L 312.5 340" opacity="1"/>
    <path fill="none" class="highcharts-grid-line" d="M 339.5 41 L 339.5 340" opacity="1"/>
    <path fill="none" class="highcharts-grid-line" d="M 366.5 41 L 366.5 340" opacity="1"/>
    <path fill="none" class="highcharts-grid-line" d="M 393.5 41 L 393.5 340" opacity="1"/>
    <path fill="none" class="highcharts-grid-line" d="M 420.5 41 L 420.5 340" opacity="1"/>
    <path fill="none" class="highcharts-grid-line" d="M 447.5 41 L 447.5 340" opacity="1"/>
    <path fill="none" class="highcharts-grid-line" d="M 474.5 41 L 474.5 340" opacity="1"/>
    <path fill="none" class="highcharts-grid-line" d="M 42.5 41 L 42.5 340" opacity="1"/>
  </g>
  <g class="highcharts-grid highcharts-yaxis-grid ">
    <path fill="none" stroke="#e6e6e6" stroke-width="1" class="highcharts-grid-line" d="M 43 340.5 L 475 340.5" opacity="1"/>
    <path fill="none" stroke="#e6e6e6" stroke-width="1" class="highcharts-grid-line" d="M 43 310.5 L 475 310.5" opacity="1"/>
    <path fill="none" stroke="#e6e6e6" stroke-width="1" class="highcharts-grid-line" d="M 43 280.5 L 475 280.5" opacity="1"/>
    <path fill="none" stroke="#e6e6e6" stroke-width="1" class="highcharts-grid-line" d="M 43 250.5 L 475 250.5" opacity="1"/>
    <path fill="none" stroke="#e6e6e6" stroke-width="1" class="highcharts-grid-line" d="M 43 220.5 L 475 220.5" opacity="1"/>
    <path fill="none" stroke="#e6e6e6" stroke-width="1" class="highcharts-grid-line" d="M 43 191.5 L 475 191.5" opacity="1"/>
    <path fill="none" stroke="#e6e6e6" stroke-width="1" class="highcharts-grid-line" d="M 43 161.5 L 475 161.5" opacity="1"/>
    <path fill="none" stroke="#e6e6e6" stroke-width="1" class="highcharts-grid-line" d="M 43 131.5 L 475 131.5" opacity="1"/>
    <path fill="none" stroke="#e6e6e6" stroke-width="1" class="highcharts-grid-line" d="M 43 101.5 L 475 101.5" opacity="1"/>
    <path fill="none" stroke="#e6e6e6" stroke-width="1" class="highcharts-grid-line" d="M 43 71.5 L 475 71.5" opacity="1"/>
    <path fill="none" stroke="#e6e6e6" stroke-width="1" class="highcharts-grid-line" d="M 43 40.5 L 475 40.5" opacity="1"/>
  </g>
  <rect fill="none" class="highcharts-plot-border" x="43" y="41" width="432" height="299"/>
  <g class="highcharts-axis highcharts-xaxis ">
    <path fill="none" class="highcharts-axis-line" stroke="#ccd6eb" stroke-width="1" d="M 43 340.5 L 475 340.5"/>
  </g>
  <g class="highcharts-axis highcharts-yaxis ">
    <path fill="none" class="highcharts-axis-line" d="M 43 41 L 43 340"/>
  </g>
  <g class="highcharts-series-group">
    <g class="highcharts-series highcharts-series-0 highcharts-line-series highcharts-color-undefined " transform="translate(43,41) scale(1 1)" clip-path="url(#highcharts-q5yv2i5-7)">
      <path fill="none" d="M 13.5 91.494 L 40.5 108.83600000000001 L 67.5 65.78 L 94.5 69.368 L 121.5 55.614000000000004 L 148.5 90.298 L 175.5 116.012 L 202.5 138.73600000000002 L 229.5 113.62 L 256.5 75.34800000000001 L 283.5 54.418000000000006 L 310.5 21.52800000000002 L 337.5 22.72399999999999 L 364.5 53.22200000000001 L 391.5 89.70000000000002 L 418.5 98.67000000000002" class="highcharts-graph" stroke="#B375AB" stroke-width="2" stroke-linejoin="round" stroke-linecap="round"/>
    </g>
    <g class="highcharts-markers highcharts-series-0 highcharts-line-series highcharts-color-undefined " transform="translate(43,41) scale(1 1)" clip-path="none">
      <path fill="#B375AB" d="M 17 91 A 4 4 0 1 1 16.99999800000017 90.99600000066667 Z" class="highcharts-point"/>
      <path fill="#B375AB" d="M 44 109 A 4 4 0 1 1 43.99999800000017 108.99600000066667 Z" class="highcharts-point"/>
      <path fill="#B375AB" d="M 71 66 A 4 4 0 1 1 70.99999800000016 65.99600000066667 Z" class="highcharts-point"/>
      <path fill="#B375AB" d="M 98 69 A 4 4 0 1 1 97.99999800000016 68.99600000066667 Z" class="highcharts-point"/>
      <path fill="#B375AB" d="M 125 56 A 4 4 0 1 1 124.99999800000016 55.99600000066666 Z" class="highcharts-point"/>
      <path fill="#B375AB" d="M 152 90 A 4 4 0 1 1 151.99999800000018 89.99600000066667 Z" class="highcharts-point"/>
      <path fill="#B375AB" d="M 179 116 A 4 4 0 1 1 178.99999800000018 115.99600000066667 Z" class="highcharts-point"/>
      <path fill="#B375AB" d="M 206 139 A 4 4 0 1 1 205.99999800000018 138.99600000066667 Z" class="highcharts-point"/>
      <path fill="#B375AB" d="M 233 114 A 4 4 0 1 1 232.99999800000018 113.99600000066667 Z" class="highcharts-point"/>
      <path fill="#B375AB" d="M 260 75 A 4 4 0 1 1 259.9999980000002 74.99600000066667 Z" class="highcharts-point"/>
      <path fill="#B375AB" d="M 287 54 A 4 4 0 1 1 286.9999980000002 53.99600000066666 Z" class="highcharts-point"/>
      <path fill="#B375AB" d="M 314 22 A 4 4 0 1 1 313.9999980000002 21.996000000666665 Z" class="highcharts-point"/>
      <path fill="#B375AB" d="M 341 23 A 4 4 0 1 1 340.9999980000002 22.996000000666665 Z" class="highcharts-point"/>
      <path fill="#B375AB" d="M 368 53 A 4 4 0 1 1 367.9999980000002 52.99600000066666 Z" class="highcharts-point"/>
      <path fill="#B375AB" d="M 395 90 A 4 4 0 1 1 394.9999980000002 89.99600000066667 Z" class="highcharts-point"/>
      <path fill="#B375AB" d="M 422 99 A 4 4 0 1 1 421.9999980000002 98.99600000066667 Z" class="highcharts-point"/>
    </g>
  </g>
  <text x="10" text-anchor="start" class="highcharts-title" style="color:#000000;font-size:14px;font-weight:bold;fill:#000000;" y="21">
    <tspan>Anzahl Gewaltstraftaten pro 100000 Einwohner</tspan>
  </text>
  <g class="highcharts-data-labels highcharts-series-0 highcharts-line-series highcharts-color-undefined " visibility="visible" transform="translate(43,41) scale(1 1)">
    <g class="highcharts-label highcharts-data-label highcharts-data-label-color-undefined " transform="translate(-1,68)">
      <text x="5" style="font-size:11px;font-weight:bold;color:#000000;fill:#000000;" y="16">
        <tspan x="5" y="16" class="highcharts-text-outline" fill="#FFFFFF" stroke="#FFFFFF" stroke-width="2px" stroke-linejoin="round">347</tspan><tspan x="5" y="16">347</tspan>
      </text>
    </g>
    <g class="highcharts-label highcharts-data-label highcharts-data-label-color-undefined " transform="translate(36,99)">
      <text x="5" style="font-size:11px;font-weight:bold;color:#000000;fill:#000000;" y="16"/>
    </g>
    <g class="highcharts-label highcharts-data-label highcharts-data-label-color-undefined " transform="translate(63,56)">
      <text x="5" style="font-size:11px;font-weight:bold;color:#000000;fill:#000000;" y="16"/>
    </g>
    <g class="highcharts-label highcharts-data-label highcharts-data-label-color-undefined " transform="translate(90,59)">
      <text x="5" style="font-size:11px;font-weight:bold;color:#000000;fill:#000000;" y="16"/>
    </g>
    <g class="highcharts-label highcharts-data-label highcharts-data-label-color-undefined " transform="translate(117,46)">
      <text x="5" style="font-size:11px;font-weight:bold;color:#000000;fill:#000000;" y="16"/>
    </g>
    <g class="highcharts-label highcharts-data-label highcharts-data-label-color-undefined " transform="translate(144,80)">
      <text x="5" style="font-size:11px;font-weight:bold;color:#000000;fill:#000000;" y="16"/>
    </g>
    <g class="highcharts-label highcharts-data-label highcharts-data-label-color-undefined " transform="translate(171,106)">
      <text x="5" style="font-size:11px;font-weight:bold;color:#000000;fill:#000000;" y="16"/>
    </g>
    <g class="highcharts-label highcharts-data-label highcharts-data-label-color-undefined " transform="translate(198,129)">
      <text x="5" style="font-size:11px;font-weight:bold;color:#000000;fill:#000000;" y="16"/>
    </g>
    <g class="highcharts-label highcharts-data-label highcharts-data-label-color-undefined " transform="translate(225,104)">
      <text x="5" style="font-size:11px;font-weight:bold;color:#000000;fill:#000000;" y="16"/>
    </g>
    <g class="highcharts-label highcharts-data-label highcharts-data-label-color-undefined " transform="translate(252,65)">
      <text x="5" style="font-size:11px;font-weight:bold;color:#000000;fill:#000000;" y="16"/>
    </g>
    <g class="highcharts-label highcharts-data-label highcharts-data-label-color-undefined " transform="translate(279,44)">
      <text x="5" style="font-size:11px;font-weight:bold;color:#000000;fill:#000000;" y="16"/>
    </g>
    <g class="highcharts-label highcharts-data-label highcharts-data-label-color-undefined " transform="translate(306,12)">
      <text x="5" style="font-size:11px;font-weight:bold;color:#000000;fill:#000000;" y="16"/>
    </g>
    <g class="highcharts-label highcharts-data-label highcharts-data-label-color-undefined " transform="translate(333,13)">
      <text x="5" style="font-size:11px;font-weight:bold;color:#000000;fill:#000000;" y="16"/>
    </g>
    <g class="highcharts-label highcharts-data-label highcharts-data-label-color-undefined " transform="translate(360,43)">
      <text x="5" style="font-size:11px;font-weight:bold;color:#000000;fill:#000000;" y="16"/>
    </g>
    <g class="highcharts-label highcharts-data-label highcharts-data-label-color-undefined " transform="translate(387,80)">
      <text x="5" style="font-size:11px;font-weight:bold;color:#000000;fill:#000000;" y="16"/>
    </g>
    <g class="highcharts-label highcharts-data-label highcharts-data-label-color-undefined " transform="translate(404,76)">
      <text x="5" style="font-size:11px;font-weight:bold;color:#000000;fill:#000000;" y="16">
        <tspan x="5" y="16" class="highcharts-text-outline" fill="#FFFFFF" stroke="#FFFFFF" stroke-width="2px" stroke-linejoin="round">335</tspan><tspan x="5" y="16">335</tspan>
      </text>
    </g>
  </g>
  <g class="highcharts-axis-labels highcharts-xaxis-labels ">
    <text x="59.09272486435067" style="color:#000000;cursor:default;font-size:11px;fill:#000000;" text-anchor="end" transform="translate(0,0) rotate(-45 59.09272486435067 356)" y="356" opacity="1">
      <tspan>2000</tspan>
    </text>
    <text x="86.09272486435067" style="color:#000000;cursor:default;font-size:11px;fill:#000000;" text-anchor="end" transform="translate(0,0) rotate(-45 86.09272486435067 356)" y="356" opacity="1">
      <tspan>2001</tspan>
    </text>
    <text x="113.09272486435067" style="color:#000000;cursor:default;font-size:11px;fill:#000000;" text-anchor="end" transform="translate(0,0) rotate(-45 113.09272486435067 356)" y="356" opacity="1">
      <tspan>2002</tspan>
    </text>
    <text x="140.09272486435069" style="color:#000000;cursor:default;font-size:11px;fill:#000000;" text-anchor="end" transform="translate(0,0) rotate(-45 140.09272486435069 356)" y="356" opacity="1">
      <tspan>2003</tspan>
    </text>
    <text x="167.09272486435069" style="color:#000000;cursor:default;font-size:11px;fill:#000000;" text-anchor="end" transform="translate(0,0) rotate(-45 167.09272486435069 356)" y="356" opacity="1">
      <tspan>2004</tspan>
    </text>
    <text x="194.09272486435069" style="color:#000000;cursor:default;font-size:11px;fill:#000000;" text-anchor="end" transform="translate(0,0) rotate(-45 194.09272486435069 356)" y="356" opacity="1">
      <tspan>2005</tspan>
    </text>
    <text x="221.09272486435069" style="color:#000000;cursor:default;font-size:11px;fill:#000000;" text-anchor="end" transform="translate(0,0) rotate(-45 221.09272486435069 356)" y="356" opacity="1">
      <tspan>2006</tspan>
    </text>
    <text x="248.09272486435066" style="color:#000000;cursor:default;font-size:11px;fill:#000000;" text-anchor="end" transform="translate(0,0) rotate(-45 248.09272486435066 356)" y="356" opacity="1">
      <tspan>2007</tspan>
    </text>
    <text x="275.09272486435066" style="color:#000000;cursor:default;font-size:11px;fill:#000000;" text-anchor="end" transform="translate(0,0) rotate(-45 275.09272486435066 356)" y="356" opacity="1">
      <tspan>2008</tspan>
    </text>
    <text x="302.09272486435066" style="color:#000000;cursor:default;font-size:11px;fill:#000000;" text-anchor="end" transform="translate(0,0) rotate(-45 302.09272486435066 356)" y="356" opacity="1">
      <tspan>2009</tspan>
    </text>
    <text x="329.09272486435066" style="color:#000000;cursor:default;font-size:11px;fill:#000000;" text-anchor="end" transform="translate(0,0) rotate(-45 329.09272486435066 356)" y="356" opacity="1">
      <tspan>2010</tspan>
    </text>
    <text x="356.09272486435066" style="color:#000000;cursor:default;font-size:11px;fill:#000000;" text-anchor="end" transform="translate(0,0) rotate(-45 356.09272486435066 356)" y="356" opacity="1">
      <tspan>2011</tspan>
    </text>
    <text x="383.09272486435066" style="color:#000000;cursor:default;font-size:11px;fill:#000000;" text-anchor="end" transform="translate(0,0) rotate(-45 383.09272486435066 356)" y="356" opacity="1">
      <tspan>2012</tspan>
    </text>
    <text x="410.09272486435066" style="color:#000000;cursor:default;font-size:11px;fill:#000000;" text-anchor="end" transform="translate(0,0) rotate(-45 410.09272486435066 356)" y="356" opacity="1">
      <tspan>2013</tspan>
    </text>
    <text x="437.09272486435066" style="color:#000000;cursor:default;font-size:11px;fill:#000000;" text-anchor="end" transform="translate(0,0) rotate(-45 437.09272486435066 356)" y="356" opacity="1">
      <tspan>2014</tspan>
    </text>
    <text x="464.09272486435066" style="color:#000000;cursor:default;font-size:11px;fill:#000000;" text-anchor="end" transform="translate(0,0) rotate(-45 464.09272486435066 356)" y="356" opacity="1">
      <tspan>2015</tspan>
    </text>
  </g>
  <g class="highcharts-axis-labels highcharts-yaxis-labels ">
    <text x="28" style="color:#000000;cursor:default;font-size:11px;fill:#000000;" text-anchor="end" transform="translate(0,0)" y="345" opacity="1">
      <tspan>0</tspan>
    </text>
    <text x="28" style="color:#000000;cursor:default;font-size:11px;fill:#000000;" text-anchor="end" transform="translate(0,0)" y="315" opacity="1">
      <tspan>50</tspan>
    </text>
    <text x="28" style="color:#000000;cursor:default;font-size:11px;fill:#000000;" text-anchor="end" transform="translate(0,0)" y="285" opacity="1">
      <tspan>100</tspan>
    </text>
    <text x="28" style="color:#000000;cursor:default;font-size:11px;fill:#000000;" text-anchor="end" transform="translate(0,0)" y="255" opacity="1">
      <tspan>150</tspan>
    </text>
    <text x="28" style="color:#000000;cursor:default;font-size:11px;fill:#000000;" text-anchor="end" transform="translate(0,0)" y="225" opacity="1">
      <tspan>200</tspan>
    </text>
    <text x="28" style="color:#000000;cursor:default;font-size:11px;fill:#000000;" text-anchor="end" transform="translate(0,0)" y="195" opacity="1">
      <tspan>250</tspan>
    </text>
    <text x="28" style="color:#000000;cursor:default;font-size:11px;fill:#000000;" text-anchor="end" transform="translate(0,0)" y="165" opacity="1">
      <tspan>300</tspan>
    </text>
    <text x="28" style="color:#000000;cursor:default;font-size:11px;fill:#000000;" text-anchor="end" transform="translate(0,0)" y="135" opacity="1">
      <tspan>350</tspan>
    </text>
    <text x="28" style="color:#000000;cursor:default;font-size:11px;fill:#000000;" text-anchor="end" transform="translate(0,0)" y="105" opacity="1">
      <tspan>400</tspan>
    </text>
    <text x="28" style="color:#000000;cursor:default;font-size:11px;fill:#000000;" text-anchor="end" transform="translate(0,0)" y="75" opacity="1">
      <tspan>450</tspan>
    </text>
    <text x="28" style="color:#000000;cursor:default;font-size:11px;fill:#000000;" text-anchor="end" transform="translate(0,0)" y="46" opacity="1">
      <tspan>500</tspan>
    </text>
  </g>
  <text x="10" class="highcharts-credits" text-anchor="start" style="cursor:default;color:#000000;font-size:10px;fill:#000000;" y="400">
    <tspan>Quelle: Bundesamt für Statistik BFS, Polizeiliche Kriminalstatistik (PKS)</tspan>
  </text>
</svg>

<svg class="highcharts-root" xmlns="http://www.w3.org/2000/svg" viewBox="0 0 485 415" font-family="arial" font-size="12">
    <defs>
        <clipPath id="a">
            <path fill="none" d="M0 0h432v299H0z"/>
        </clipPath>
    </defs>
    <rect fill="#fbfbfb" class="highcharts-background" width="485" height="415" rx="0" ry="0"/>
    <path fill="none" class="highcharts-plot-background" d="M43 41h432v299H43z"/>
    <g class="highcharts-grid highcharts-xaxis-grid">
        <path fill="none" class="highcharts-grid-line" d="M69.5 41v299m27-299v299m27-299v299m27-299v299m27-299v299m27-299v299m27-299v299m27-299v299m27-299v299m27-299v299m27-299v299m27-299v299m27-299v299m27-299v299m27-299v299m27-299v299M42.5 41v299"/>
    </g>
    <g class="highcharts-grid highcharts-yaxis-grid">
        <path fill="none" stroke="#e6e6e6" class="highcharts-grid-line" d="M43 340.5h432m-432-30h432m-432-30h432m-432-30h432m-432-30h432m-432-29h432m-432-30h432m-432-30h432m-432-30h432m-432-30h432m-432-31h432"/>
    </g>
    <path fill="none" class="highcharts-plot-border" d="M43 41h432v299H43z"/>
    <g class="highcharts-axis highcharts-xaxis">
        <path fill="none" class="highcharts-axis-line" stroke="#ccd6eb" d="M43 340.5h432"/>
    </g>
    <g class="highcharts-axis highcharts-yaxis">
        <path fill="none" class="highcharts-axis-line" d="M43 41v299"/>
    </g>
    <g class="highcharts-series-group">
        <g class="highcharts-series highcharts-series-0 highcharts-line-series highcharts-color-undefined" transform="translate(43 41)" clip-path="url(#a)">
            <path fill="none" d="M13.5 91.494l27 17.342 27-43.056 27 3.588 27-13.754 27 34.684 27 25.714 27 22.724 27-25.116 27-38.272 27-20.93 27-32.89 27 1.196 27 30.498 27 36.478 27 8.97" class="highcharts-graph" stroke="#B375AB" stroke-width="2" stroke-linejoin="round" stroke-linecap="round"/>
        </g>
        <g class="highcharts-markers highcharts-series-0 highcharts-line-series highcharts-color-undefined">
            <path fill="#B375AB" d="M60 132a4 4 0 1 1 0-.004zm27 18a4 4 0 1 1 0-.004zm27-43a4 4 0 1 1 0-.004zm27 3a4 4 0 1 1 0-.004zm27-13a4 4 0 1 1 0-.004zm27 34a4 4 0 1 1 0-.004zm27 26a4 4 0 1 1 0-.004zm27 23a4 4 0 1 1 0-.004zm27-25a4 4 0 1 1 0-.004zm27-39a4 4 0 1 1 0-.004zm27-21a4 4 0 1 1 0-.004zm27-32a4 4 0 1 1 0-.004zm27 1a4 4 0 1 1 0-.004zm27 30a4 4 0 1 1 0-.004zm27 37a4 4 0 1 1 0-.004zm27 9a4 4 0 1 1 0-.004z" class="highcharts-point"/>
        </g>
    </g>
    <text x="10" class="highcharts-title" y="21" color="#000" font-size="14" font-weight="700">
        <tspan>Anzahl Gewaltstraftaten pro 100000 Einwohner</tspan>
    </text>
    <g class="highcharts-data-labels highcharts-series-0 highcharts-line-series highcharts-color-undefined">
        <text x="5" y="16" font-size="11" font-weight="700" color="#000" transform="translate(42 109)" class="highcharts-label highcharts-data-label highcharts-data-label-color-undefined">
            <tspan x="5" y="16" class="highcharts-text-outline" fill="#FFF" stroke="#FFF" stroke-width="2" stroke-linejoin="round">347</tspan><tspan x="5" y="16">347</tspan>
        </text>
        <text x="5" y="16" font-size="11" font-weight="700" color="#000" transform="translate(447 117)" class="highcharts-label highcharts-data-label highcharts-data-label-color-undefined">
            <tspan x="5" y="16" class="highcharts-text-outline" fill="#FFF" stroke="#FFF" stroke-width="2" stroke-linejoin="round">335</tspan><tspan x="5" y="16">335</tspan>
        </text>
    </g>
    <g class="highcharts-axis-labels highcharts-xaxis-labels" text-anchor="end" color="#000" cursor="default" font-size="11">
        <text x="59.093" transform="rotate(-45 59.093 356)" y="356">
            <tspan>2000</tspan>
        </text>
        <text x="86.093" transform="rotate(-45 86.093 356)" y="356">
            <tspan>2001</tspan>
        </text>
        <text x="113.093" transform="rotate(-45 113.093 356)" y="356">
            <tspan>2002</tspan>
        </text>
        <text x="140.093" transform="rotate(-45 140.093 356)" y="356">
            <tspan>2003</tspan>
        </text>
        <text x="167.093" transform="rotate(-45 167.093 356)" y="356">
            <tspan>2004</tspan>
        </text>
        <text x="194.093" transform="rotate(-45 194.093 356)" y="356">
            <tspan>2005</tspan>
        </text>
        <text x="221.093" transform="rotate(-45 221.093 356)" y="356">
            <tspan>2006</tspan>
        </text>
        <text x="248.093" transform="rotate(-45 248.093 356)" y="356">
            <tspan>2007</tspan>
        </text>
        <text x="275.093" transform="rotate(-45 275.093 356)" y="356">
            <tspan>2008</tspan>
        </text>
        <text x="302.093" transform="rotate(-45 302.093 356)" y="356">
            <tspan>2009</tspan>
        </text>
        <text x="329.093" transform="rotate(-45 329.093 356)" y="356">
            <tspan>2010</tspan>
        </text>
        <text x="356.093" transform="rotate(-45 356.093 356)" y="356">
            <tspan>2011</tspan>
        </text>
        <text x="383.093" transform="rotate(-45 383.093 356)" y="356">
            <tspan>2012</tspan>
        </text>
        <text x="410.093" transform="rotate(-45 410.093 356)" y="356">
            <tspan>2013</tspan>
        </text>
        <text x="437.093" transform="rotate(-45 437.093 356)" y="356">
            <tspan>2014</tspan>
        </text>
        <text x="464.093" transform="rotate(-45 464.093 356)" y="356">
            <tspan>2015</tspan>
        </text>
    </g>
    <g class="highcharts-axis-labels highcharts-yaxis-labels" text-anchor="end" color="#000" cursor="default" font-size="11">
        <text x="28" y="345">
            <tspan>0</tspan>
        </text>
        <text x="28" y="315">
            <tspan>50</tspan>
        </text>
        <text x="28" y="285">
            <tspan>100</tspan>
        </text>
        <text x="28" y="255">
            <tspan>150</tspan>
        </text>
        <text x="28" y="225">
            <tspan>200</tspan>
        </text>
        <text x="28" y="195">
            <tspan>250</tspan>
        </text>
        <text x="28" y="165">
            <tspan>300</tspan>
        </text>
        <text x="28" y="135">
            <tspan>350</tspan>
        </text>
        <text x="28" y="105">
            <tspan>400</tspan>
        </text>
        <text x="28" y="75">
            <tspan>450</tspan>
        </text>
        <text x="28" y="46">
            <tspan>500</tspan>
        </text>
    </g>
    <text x="10" class="highcharts-credits" y="400" cursor="default" color="#000" font-size="10">
        <tspan>Quelle: Bundesamt für Statistik BFS, Polizeiliche Kriminalstatistik (PKS)</tspan>
    </text>
</svg>
